static/img/pictograms/picto-pack/picto-partner-midaubergine.svg

<svg xmlns="http://www.w3.org/2000/svg" width="400" height="400" viewBox="0 0 400 400"><g><path fill="#5E2750" d="M200.002-.004C89.72-.004 0 89.72 0 199.998 0 310.28 89.723 400.003 200.002 400.003c35.098 0 69.685-9.275 100.017-26.83 7.718-4.465 12.47-12.71 12.47-21.632 0 0 0-51.456.004-51.456H299.85c-6.9 0-12.5-5.595-12.5-12.503 0-6.903 5.6-12.498 12.5-12.498h12.64v-50.02H375c13.345 0 24.253-10.468 24.958-23.637.028-.48.042-.956.042-1.43 0-110.276-89.72-200-199.998-200zm87.32 200.503c-34.463 0-62.502-28.036-62.502-62.5 0-14.062 4.66-27.05 12.534-37.5h-112.77c-20.68 0-37.504 16.823-37.504 37.507 0 20.67 16.824 37.49 37.504 37.49V200.5c-34.47 0-62.51-28.033-62.51-62.493 0-34.47 28.04-62.51 62.51-62.51h162.738c34.463 0 62.5 28.04 62.5 62.503s-28.037 62.5-62.5 62.5zm0-100c-20.676 0-37.504 16.824-37.504 37.5s16.828 37.502 37.504 37.502c20.673 0 37.497-16.824 37.497-37.5S307.997 100.5 287.32 100.5zm.497 49.365c-6.908 0-12.507-5.595-12.507-12.5s5.6-12.498 12.506-12.498c6.896 0 12.498 5.595 12.498 12.5s-5.602 12.498-12.5 12.498z"/></g></svg>

<?xml version="1.0" encoding="utf-8"?>
<!-- Generator: Adobe Illustrator 17.0.2, SVG Export Plug-In . SVG Version: 6.00 Build 0)  -->
<!DOCTYPE svg PUBLIC "-//W3C//DTD SVG 1.1//EN" "http://www.w3.org/Graphics/SVG/1.1/DTD/svg11.dtd">
<svg version="1.1" xmlns="http://www.w3.org/2000/svg" xmlns:xlink="http://www.w3.org/1999/xlink" x="0px" y="0px" width="400px"
	 height="400px" viewBox="0 0 400 400" enable-background="new 0 0 400 400" xml:space="preserve">
<g id="BK" display="none">
	<rect x="-1600" y="-2580" display="inline" fill="#FFFFFF" width="5100" height="4060"/>
</g>
<g id="Comp">
	<g id="_x32_7">
		<path fill="#5E2750" d="M200.002-0.004C89.719-0.004,0,89.719,0,199.998c0,110.283,89.723,200.005,200.002,200.005
			c35.098,0,69.685-9.275,100.017-26.829c7.719-4.466,12.471-12.711,12.471-21.633c0,0,0-51.457,0.004-51.457h-12.644
			c-6.9,0-12.499-5.595-12.499-12.503c0-6.904,5.599-12.499,12.499-12.499h12.64v-50.021h62.509
			c13.346,0,24.254-10.467,24.959-23.636c0.028-0.48,0.042-0.956,0.042-1.429C400,89.719,310.281-0.004,200.002-0.004z
			 M287.322,200.499c-34.463,0-62.502-28.035-62.502-62.499c0-14.062,4.66-27.051,12.534-37.501h-112.77
			c-20.68,0-37.504,16.824-37.504,37.508c0,20.669,16.824,37.49,37.504,37.49v25.002c-34.47,0-62.509-28.032-62.509-62.492
			c0-34.47,28.039-62.509,62.509-62.509h162.738c34.463,0,62.499,28.039,62.499,62.502S321.785,200.499,287.322,200.499z
			 M287.322,100.5c-20.676,0-37.504,16.824-37.504,37.501s16.828,37.501,37.504,37.501c20.673,0,37.497-16.824,37.497-37.501
			S307.998,100.5,287.322,100.5z M287.819,149.865c-6.907,0-12.506-5.595-12.506-12.499s5.599-12.499,12.506-12.499
			c6.897,0,12.499,5.595,12.499,12.499S294.716,149.865,287.819,149.865z"/>
	</g>
</g>
</svg>
